!!!OTL: WAS WOLLN WIR ABER HEBEN AN
!!!ARE: Europa, Mitteleuropa, Deutschland
!!!SCT: E0137
!!!YEM: Copyright 1995, estate of Helmut Schaffrath.
**kern
*ICvox
*Ivox
*M6/4
*k[b-]
*F:
{4f
=1
2f
4g
2a
4a
=2
2b-
4g
2a}
{4a
=3
2b-
4cc
2dd
4dd
=4
2.cc
2b-}
{4cc
=5
4cc
4cc
4cc
2cc
4a
=6
4b-
4dd
4cc
2a}
{4a
=7
2g
4a
4b-
4a
4b-
=8
2.g
2f}
==
!!!AGN: erzaehlendes Volks - Lied, Schalk -, Schelmen - Lied, Liebe     Ballade ?
!!!ONB: ESAC (Essen Associative Code) Database: ERK1
!!!AMT: compound duple
!!!AIN: vox
!!!EED: Helmut Schaffrath
!!!EEV: 1.0
*-
!!!title: @{OTL} [@{SCT}]
